Public/telephone.svg

<svg enable-background="new 0 0 35 35" height="35" viewBox="0 0 35 35" width="35" xmlns="http://www.w3.org/2000/svg"><path d="m25.302 0h-15.604c-1.3 0-2.364 1.063-2.364 2.364v30.271c0 1.301 1.064 2.365 2.364 2.365h15.604c1.3 0 2.364-1.062 2.364-2.364v-30.272c0-1.301-1.064-2.364-2.364-2.364zm-10.298 1.704h4.992c.158 0 .286.128.286.287 0 .158-.128.286-.286.286h-4.992c-.158 0-.286-.128-.286-.286 0-.159.128-.287.286-.287zm2.496 32.114c-.653 0-1.182-.529-1.182-1.183s.529-1.182 1.182-1.182 1.182.528 1.182 1.182-.529 1.183-1.182 1.183zm8.521-3.193h-17.042v-26.876h17.042z"/></svg>

<?xml version="1.0" encoding="iso-8859-1"?>
<!-- Generator: Adobe Illustrator 16.0.0, SVG Export Plug-In . SVG Version: 6.00 Build 0)  -->
<!DOCTYPE svg PUBLIC "-//W3C//DTD SVG 1.1//EN" "http://www.w3.org/Graphics/SVG/1.1/DTD/svg11.dtd">
<svg version="1.1" id="Capa_1" xmlns="http://www.w3.org/2000/svg" xmlns:xlink="http://www.w3.org/1999/xlink" x="0px" y="0px"
	 width="35px" height="35px" viewBox="0 0 35 35" style="enable-background:new 0 0 35 35;" xml:space="preserve">
<g>
	<path d="M25.302,0H9.698c-1.3,0-2.364,1.063-2.364,2.364v30.271C7.334,33.936,8.398,35,9.698,35h15.604
		c1.3,0,2.364-1.062,2.364-2.364V2.364C27.666,1.063,26.602,0,25.302,0z M15.004,1.704h4.992c0.158,0,0.286,0.128,0.286,0.287
		c0,0.158-0.128,0.286-0.286,0.286h-4.992c-0.158,0-0.286-0.128-0.286-0.286C14.718,1.832,14.846,1.704,15.004,1.704z M17.5,33.818
		c-0.653,0-1.182-0.529-1.182-1.183s0.529-1.182,1.182-1.182s1.182,0.528,1.182,1.182S18.153,33.818,17.5,33.818z M26.021,30.625
		H8.979V3.749h17.042V30.625z"/>
</g>
<g>
</g>
<g>
</g>
<g>
</g>
<g>
</g>
<g>
</g>
<g>
</g>
<g>
</g>
<g>
</g>
<g>
</g>
<g>
</g>
<g>
</g>
<g>
</g>
<g>
</g>
<g>
</g>
<g>
</g>
</svg>
